packages/ui-icons/src/Basic/32/Movies_32.svg

<svg xmlns="http://www.w3.org/2000/svg" viewBox="0 0 40 40"><path d="M36 20a16 16 0 1 0-16 16h16v-2h-8.27A16 16 0 0 0 36 20ZM20 34a14 14 0 1 1 14-14 14 14 0 0 1-14 14Zm-6-14a2 2 0 1 1-2-2 2 2 0 0 1 2 2Zm16 0a2 2 0 1 1-2-2 2 2 0 0 1 2 2Zm-8 8a2 2 0 1 1-2-2 2 2 0 0 1 2 2Zm0-16a2 2 0 1 1-2-2 2 2 0 0 1 2 2Z"/></svg>

<svg id="Ready" xmlns="http://www.w3.org/2000/svg" viewBox="0 0 40 40"><title>Megaicons_work_32_1.8_cp</title><path d="M36,20A16,16,0,1,0,20,36H36V34H27.73A16,16,0,0,0,36,20ZM20,34A14,14,0,1,1,34,20,14,14,0,0,1,20,34ZM14,20a2,2,0,1,1-2-2A2,2,0,0,1,14,20Zm16,0a2,2,0,1,1-2-2A2,2,0,0,1,30,20Zm-8,8a2,2,0,1,1-2-2A2,2,0,0,1,22,28Zm0-16a2,2,0,1,1-2-2A2,2,0,0,1,22,12Z"/></svg>
